!!!OTL: Die Mordeltern Es war einmal ein Gastwirtssohn,
!!!ARE: Europa, Mitteleuropa, Deutschland (), Sachsen, Anhalt
!!!YOR: 4, S. 313
!!    ????
!!!SCT: Q0085m
!!!YEM: Copyright 1995, estate of Helmut Schaffrath.
**kern
*ICvox
*Ivox
*M4/4
*k[f#]
*G:
{8g
=1
4g
4cc
4.dd
8b
=2
4b
4a
4a
8r}
{8a
=3
4a
4ee
4.ee
8b
=4
4cc
4b
4b
8r}
{8g
=5
4g
4dd
4dd
4b
=6
4cc
4gg
4gg}
{4gg
=7
4ff#
4ee
4dd
4g
=8
8b
8a
4g
4.r}
==
!!!AGN: Ballade, Habgier, Mord, Reue, Selbstmord
!!!ONB: ESAC (Essen Associative Code) Database: BALLADE
!!!AMT: simple quadruple
!!!AIN: vox
!!!EED: Helmut Schaffrath
!!!EEV: 1.0
*-
